Yaru++/mimetypes/48/application-x-virtualbox-ovf.svg

<svg height="48" viewBox="0 0 12.699375 12.699376" width="48" xmlns="http://www.w3.org/2000/svg" xmlns:xlink="http://www.w3.org/1999/xlink"><linearGradient id="a" gradientUnits="userSpaceOnUse" x1="6.35044508" x2="6.35044508" y1=".13228552" y2="12.30252024"><stop offset="0" stop-color="#fff"/><stop offset=".125" stop-color="#fff" stop-opacity=".098039"/><stop offset=".92500001" stop-color="#fff" stop-opacity=".098039"/><stop offset="1" stop-opacity=".498039"/></linearGradient><linearGradient id="b" gradientTransform="matrix(0 -.02997086 -.02997 0 15.739288 13.625372)" gradientUnits="userSpaceOnUse" x1="512" x2="-.000001" y1="397.99393" y2="125.99394"><stop offset="0" stop-color="#d37e00"/><stop offset="1" stop-color="#ffaa2d"/></linearGradient><path d="m4.1621983.39685674c-.5881821 0-1.0513178.013541-1.4323996.077511-.3810844.0639688-.6929229.1839554-.9213476.4118407-.2284221.22788546-.3489841.53958346-.4123567.92082876-.0633725.3812456-.0757438.8453924-.07286 1.4349839v3.2399535 3.241503c-.00286.5886854.00955 1.0525964.07286 1.4334324.063373.381246.1839346.692944.4123567.920829.2284247.227885.5402632.347873.9213476.411841.3810845.06397.8442175.07751 1.4323996.07751h4.3757445c.5881822 0 1.0510742-.01352 1.4313686-.07751.3802926-.064.6911786-.18439.9187596-.412357.227583-.227967.347433-.539443.411325-.920313.06389-.380867.07751-.844073.07751-1.4334324v-3.241503-3.2415036c0-.5893606-.01362-1.0525645-.07751-1.4334338-.063892-.3808691-.183742-.6923443-.411325-.92031206-.227581-.2279676-.538467-.3483608-.9187596-.4123575-.3802944-.0639969-.8431864-.0775109-1.4313686-.0775109z" opacity=".1"/><path d="m4.1621983.13228644c-.5880975 0-1.0515929.014104-1.4323996.078028-.3812749.0640008-.692825.1838554-.9213476.4118404-.2285623.2280265-.3489577.53890086-.4123567.92031206-.0633143.3808966-.0757438.8449217-.07286 1.4344672v3.2404695 3.241503c-.00286.5889354.00958 1.0528014.07286 1.4334334.063399.381412.1837918.692285.4123567.920313.2285253.227983.54007.347839.9213476.411841.3808067.06392.8443021.07803 1.4323996.07803h4.3757445c.5880922 0 1.0508332-.01408 1.4308496-.07803.3804416-.06402.6914776-.183652.9192786-.411841.227723-.228107.347404-.539258.411325-.920313.06386-.38069.07751-.844226.07751-1.4334334v-3.241503-3.2415029c0-.5892071-.01365-1.0527452-.07751-1.4334338-.063921-.3810543-.183602-.69220356-.411325-.92031206-.227801-.2281869-.538837-.347819-.9192786-.4118408-.3800164-.0639501-.8427574-.0780276-1.4308496-.0780276z" fill="url(#b)"/><path d="m4.162574.26457164c-.5859201 0-1.0443173.014459-1.4106969.07596-.3663796.0615014-.6470093.1731189-.8495194.375153s-.3142566.48213756-.3751528.84848516c-.0608961.3663479-.0741829.8250345-.0713096 1.4122476v3.2409862 3.241503c-.00286.5869064.010424 1.0455174.07131 1.4117304.060896.366348.17264.646451.3751528.848485.2025127.202034.4831371.313651.8495194.375153.3663796.0615.8247768.07596 1.4106969.07596h4.3757445c.5859175 0 1.0436085-.01445 1.4091465-.07596.3655376-.06151.6457206-.173077.8474526-.375153.201732-.202073.313212-.482325.374634-.848485.06142-.36616.07545-.824629.07545-1.4117304v-3.241503-3.2415029c0-.5871009-.01402-1.0455706-.07545-1.4117309-.061422-.3661603-.172902-.64641086-.374634-.84848516s-.481915-.3136386-.8474526-.3751525c-.3655384-.0615137-.8232294-.0759605-1.4091469-.0759605z" fill="none" opacity=".3" stroke="url(#a)" stroke-width=".26457"/><path d="m1.3232344 4.3654116h2.6146956l.8684256 3.087737 1.1482564-4.0526541.8238826 2.2216261.8261235-2.2216261.9732536 2.8169091h2.7990353" fill="none" stroke="#fff" stroke-width=".529141"/><g fill="#fff"><path d="m1.5878047 6.2174036v3.241503c-.011456 2.3393384.2397775 2.5790444 2.5743936 2.5790444h4.3757445c2.3346162 0 2.5743932-.23968 2.5743932-2.5790444v-3.241503z" opacity=".08"/><path d="m6.3500706.39685674v11.64109426h2.1878722c2.3346162 0 2.5743932-.23968 2.5743932-2.5790444v-3.241503-3.2415029c0-2.33936516-.239777-2.57904396-2.5743932-2.57904396z" opacity=".08"/><g enable-background="new" stroke-width=".26457"><path d="m5.7992258 10.088242q0 .153098-.044448.276564-.044448.123466-.1259355.212362-.079018.08889-.1901378.138282-.1111196.04692-.2419937.04692-.1308741 0-.2419936-.04692-.1111196-.04939-.1926072-.138282-.079018-.0889-.1234662-.212362-.044448-.123466-.044448-.276564 0-.150629.044448-.2740952.044448-.1259355.1234662-.2148311.081488-.088896.1926072-.1358127.1111195-.049386.2419936-.049386.1308741 0 .2419937.049386.1111195.046917.1901378.1358127.081488.088896.1259355.2148311.044448.1234662.044448.2740952zm-.2395243 0q0-.2173008-.098773-.3432362-.0963035-.1284048-.2642175-.1284048-.1679139 0-.2666868.1284048-.096304.1259354-.096304.3432362 0 .2173.096304.345705.098773.125935.2666868.125935.167914 0 .2642176-.125935.098773-.128405.098773-.345705z"/><path d="m7.0906728 9.4462177q-.0963036.3605211-.2271777.6914103-.1284048.330889-.2494016.592638h-.2074232q-.1209968-.261749-.2518709-.592638-.1284048-.3308892-.2247084-.6914103h.2469323q.029632.1209968.069141.2592789.041978.1358128.086426.2716255.046917.1333439.093834.2592789.046917.125936.088896.224708.041979-.09877.088896-.224708.046917-.125935.091365-.2592789.046917-.1358127.086426-.2716255.041978-.1382821.07161-.2592789z"/><path d="m7.8289978 8.814071q.1012422 0 .1728526.014816.07408.014816.1037116.027162l-.041979.1975459q-.029632-.014816-.083957-.027163-.054325-.014816-.1333434-.014816-.160506 0-.2247084.088896-.064202.086426-.064202.2345857v.1111201h.4938647v.1926072h-.4938646v1.0914411h-.2296471v-1.4001065q0-.2469323.1209969-.3802757.1209968-.1358128.3802757-.1358128z"/></g></g></svg>

<?xml version="1.0" encoding="UTF-8" standalone="no"?>
<svg
   xmlns:dc="http://purl.org/dc/elements/1.1/"
   xmlns:cc="http://creativecommons.org/ns#"
   xmlns:rdf="http://www.w3.org/1999/02/22-rdf-syntax-ns#"
   xmlns:svg="http://www.w3.org/2000/svg"
   xmlns="http://www.w3.org/2000/svg"
   xmlns:xlink="http://www.w3.org/1999/xlink"
   xmlns:sodipodi="http://sodipodi.sourceforge.net/DTD/sodipodi-0.dtd"
   xmlns:inkscape="http://www.inkscape.org/namespaces/inkscape"
   height="48"
   viewBox="0 0 12.699375 12.699376"
   width="48"
   version="1.1"
   id="svg33"
   sodipodi:docname="application-x-virtualbox-ovf.svg"
   inkscape:version="0.92.5 (2060ec1f9f, 2020-04-08)">
  <metadata
     id="metadata39">
    <rdf:RDF>
      <cc:Work
         rdf:about="">
        <dc:format>image/svg+xml</dc:format>
        <dc:type
           rdf:resource="http://purl.org/dc/dcmitype/StillImage" />
        <dc:title></dc:title>
      </cc:Work>
    </rdf:RDF>
  </metadata>
  <defs
     id="defs37">
    <linearGradient
       gradientTransform="matrix(0.26457032,0,0,0.26457032,-84.661745,-16.006504)"
       inkscape:collect="always"
       xlink:href="#linearGradient927-3-6"
       id="linearGradient925"
       x1="344"
       y1="61"
       x2="344"
       y2="107"
       gradientUnits="userSpaceOnUse" />
    <linearGradient
       inkscape:collect="always"
       id="linearGradient927-3-6">
      <stop
         style="stop-color:#ffffff;stop-opacity:1;"
         offset="0"
         id="stop923-3" />
      <stop
         id="stop933-5"
         offset="0.125"
         style="stop-color:#ffffff;stop-opacity:0.09803922" />
      <stop
         id="stop931-6"
         offset="0.92500001"
         style="stop-color:#ffffff;stop-opacity:0.09803922" />
      <stop
         style="stop-color:#000000;stop-opacity:0.49803922"
         offset="1"
         id="stop925-2" />
    </linearGradient>
    <linearGradient
       inkscape:collect="always"
       xlink:href="#linearGradient926"
       id="linearGradient951"
       gradientUnits="userSpaceOnUse"
       gradientTransform="matrix(0,-0.02997086,-0.02997,0,15.739288,13.625372)"
       x1="512"
       y1="397.99393"
       x2="-1.0000001e-06"
       y2="125.99394" />
    <linearGradient
       id="linearGradient926"
       inkscape:collect="always">
      <stop
         id="stop922"
         offset="0"
         style="stop-color:#d37e00;stop-opacity:1" />
      <stop
         id="stop924"
         offset="1"
         style="stop-color:#ffaa2d;stop-opacity:1" />
    </linearGradient>
  </defs>
  <sodipodi:namedview
     pagecolor="#ffffff"
     bordercolor="#666666"
     borderopacity="1"
     objecttolerance="10"
     gridtolerance="10"
     guidetolerance="10"
     inkscape:pageopacity="0"
     inkscape:pageshadow="2"
     inkscape:window-width="939"
     inkscape:window-height="670"
     id="namedview35"
     showgrid="false"
     inkscape:zoom="4.9166667"
     inkscape:cx="24"
     inkscape:cy="24"
     inkscape:window-x="0"
     inkscape:window-y="27"
     inkscape:window-maximized="0"
     inkscape:current-layer="svg33" />
  <linearGradient
     id="a"
     gradientUnits="userSpaceOnUse"
     x1="344"
     x2="344"
     y1="62"
     y2="106">
    <stop
       offset="0"
       stop-color="#fff"
       id="stop2" />
    <stop
       offset=".125"
       stop-color="#fff"
       stop-opacity=".098039"
       id="stop4" />
    <stop
       offset=".92500001"
       stop-color="#fff"
       stop-opacity=".098039"
       id="stop6" />
    <stop
       offset="1"
       stop-color="#fff"
       stop-opacity=".498039"
       id="stop8" />
  </linearGradient>
  <clipPath
     id="b">
    <path
       d="m335.73108 62c-8.82418 0-9.77365.90635-9.7304 9.74838v12.25162 12.25162c-.0433 8.84203.90622 9.74838 9.7304 9.74838h16.53919c8.82418 0 9.7304-.90625 9.7304-9.74838v-12.25162-12.25162c0-8.84213-.90622-9.74838-9.7304-9.74838z"
       id="path11" />
  </clipPath>
  <linearGradient
     id="c"
     gradientTransform="matrix(0 -.02997086 .02997 0 -3.039509 13.625372)"
     gradientUnits="userSpaceOnUse"
     x1="459.03448"
     x2="35.310345"
     y1="419.23337"
     y2="207.36522">
    <stop
       offset="0"
       stop-color="#f2f2f2"
       id="stop14" />
    <stop
       offset="1"
       stop-color="#f9f9f9"
       id="stop16" />
  </linearGradient>
  <flowRoot
     xml:space="preserve"
     id="flowRoot958"
     style="fill:black;fill-opacity:1;stroke:none;font-family:sans-serif;font-style:normal;font-weight:normal;font-size:40px;line-height:1.25;letter-spacing:0px;word-spacing:0px"><flowRegion
       id="flowRegion960"><rect
         id="rect962"
         width="61.423729"
         height="69.559319"
         x="-5.2881355"
         y="-15.050847" /></flowRegion><flowPara
       id="flowPara964"></flowPara></flowRoot>  <path
     style="color:#000000;font-style:normal;font-variant:normal;font-weight:normal;font-stretch:normal;font-size:medium;line-height:normal;font-family:sans-serif;font-variant-ligatures:normal;font-variant-position:normal;font-variant-caps:normal;font-variant-numeric:normal;font-variant-alternates:normal;font-feature-settings:normal;text-indent:0;text-align:start;text-decoration:none;text-decoration-line:none;text-decoration-style:solid;text-decoration-color:#000000;letter-spacing:normal;word-spacing:normal;text-transform:none;writing-mode:lr-tb;direction:ltr;text-orientation:mixed;dominant-baseline:auto;baseline-shift:baseline;text-anchor:start;white-space:normal;shape-padding:0;clip-rule:nonzero;display:inline;overflow:visible;visibility:visible;opacity:0.1;isolation:auto;mix-blend-mode:normal;color-interpolation:sRGB;color-interpolation-filters:linearRGB;solid-color:#000000;solid-opacity:1;vector-effect:none;fill:#000000;fill-opacity:1;fill-rule:nonzero;stroke:none;stroke-width:0.52914065;stroke-linecap:butt;stroke-linejoin:miter;stroke-miterlimit:4;stroke-dasharray:none;stroke-dashoffset:0;stroke-opacity:1;marker:none;color-rendering:auto;image-rendering:auto;shape-rendering:auto;text-rendering:auto;enable-background:accumulate"
     d="m 4.1621983,0.39685674 c -0.5881821,0 -1.0513178,0.013541 -1.4323996,0.077511 C 2.3487143,0.53833654 2.0368758,0.65832314 1.8084511,0.88620844 1.580029,1.1140939 1.459467,1.4257919 1.3960944,1.8070372 1.3327219,2.1882828 1.3203506,2.6524296 1.3232344,3.2420211 v 3.2399535 3.241503 c -0.00286,0.5886854 0.00955,1.0525964 0.07286,1.4334324 0.063373,0.381246 0.1839346,0.692944 0.4123567,0.920829 0.2284247,0.227885 0.5402632,0.347873 0.9213476,0.411841 0.3810845,0.06397 0.8442175,0.07751 1.4323996,0.07751 h 4.3757445 c 0.5881822,0 1.0510742,-0.01352 1.4313686,-0.07751 0.3802926,-0.064 0.6911786,-0.18439 0.9187596,-0.412357 0.227583,-0.227967 0.347433,-0.539443 0.411325,-0.920313 0.06389,-0.380867 0.07751,-0.844073 0.07751,-1.4334324 V 6.4819746 3.240471 c 0,-0.5893606 -0.01362,-1.0525645 -0.07751,-1.4334338 C 11.235504,1.4261681 11.115654,1.1146929 10.888071,0.88672514 10.66049,0.65875754 10.349604,0.53836434 9.9693114,0.47436764 9.589017,0.41037074 9.126125,0.39685674 8.5379428,0.39685674 Z"
     id="path1020"
     inkscape:connector-curvature="0"
     sodipodi:nodetypes="sccsccccccsscccscsccsss" />
  <path
     inkscape:connector-curvature="0"
     style="color:#000000;display:inline;overflow:visible;visibility:visible;fill:url(#linearGradient951);fill-opacity:1;fill-rule:nonzero;stroke:none;stroke-width:0.26457033;marker:none;enable-background:accumulate"
     d="m 4.1621983,0.13228644 c -0.5880975,0 -1.0515929,0.014104 -1.4323996,0.078028 -0.3812749,0.0640008 -0.692825,0.1838554 -0.9213476,0.4118404 C 1.5798888,0.85018134 1.4594934,1.1610557 1.3960944,1.5424669 1.3327801,1.9233635 1.3203506,2.3873886 1.3232344,2.9769341 v 3.2404695 3.241503 c -0.00286,0.5889354 0.00958,1.0528014 0.07286,1.4334334 0.063399,0.381412 0.1837918,0.692285 0.4123567,0.920313 0.2285253,0.227983 0.54007,0.347839 0.9213476,0.411841 0.3808067,0.06392 0.8443021,0.07803 1.4323996,0.07803 h 4.3757445 c 0.5880922,0 1.0508332,-0.01408 1.4308496,-0.07803 0.3804416,-0.06402 0.6914776,-0.183652 0.9192786,-0.411841 0.227723,-0.228107 0.347404,-0.539258 0.411325,-0.920313 0.06386,-0.38069 0.07751,-0.844226 0.07751,-1.4334334 V 6.2174036 2.9759007 c 0,-0.5892071 -0.01365,-1.0527452 -0.07751,-1.4334338 C 11.235475,1.1614126 11.115794,0.85026334 10.888071,0.62215484 10.66027,0.39396794 10.349234,0.27433584 9.9687924,0.21031404 9.588776,0.14636394 9.126035,0.13228644 8.5379428,0.13228644 Z"
     id="path949" />
  <path
     id="path901"
     d="m 4.162574,0.26457164 c -0.5859201,0 -1.0443173,0.014459 -1.4106969,0.07596 -0.3663796,0.0615014 -0.6470093,0.1731189 -0.8495194,0.375153 C 1.6998476,0.91771874 1.5881011,1.1978222 1.5272049,1.5641698 1.4663088,1.9305177 1.453022,2.3892043 1.4558953,2.9764174 v 3.2409862 3.241503 c -0.00286,0.5869064 0.010424,1.0455174 0.07131,1.4117304 0.060896,0.366348 0.17264,0.646451 0.3751528,0.848485 0.2025127,0.202034 0.4831371,0.313651 0.8495194,0.375153 0.3663796,0.0615 0.8247768,0.07596 1.4106969,0.07596 h 4.3757445 c 0.5859175,0 1.0436085,-0.01445 1.4091465,-0.07596 0.3655376,-0.06151 0.6457206,-0.173077 0.8474526,-0.375153 0.201732,-0.202073 0.313212,-0.482325 0.374634,-0.848485 0.06142,-0.36616 0.07545,-0.824629 0.07545,-1.4117304 V 6.2174036 2.9759007 c 0,-0.5871009 -0.01402,-1.0455706 -0.07545,-1.4117309 C 11.10813,1.1980095 10.99665,0.91775894 10.794918,0.71568464 10.593186,0.51361034 10.313003,0.40204604 9.9474654,0.34053214 9.581927,0.27901844 9.124236,0.26457164 8.5383185,0.26457164 Z"
     style="color:#000000;display:inline;overflow:visible;visibility:visible;opacity:0.3;fill:none;fill-opacity:1;fill-rule:nonzero;stroke:url(#linearGradient925);stroke-width:0.26457033;stroke-opacity:1;marker:none;enable-background:accumulate"
     inkscape:connector-curvature="0" />
  <path
     sodipodi:nodetypes="cccccccc"
     inkscape:connector-curvature="0"
     id="path981"
     d="M 1.3232344,4.3654116 H 3.93793 L 4.8063556,7.4531486 5.954612,3.4004945 6.7784946,5.6221206 7.6046181,3.4004945 8.5778717,6.2174036 h 2.7990353"
     style="display:inline;fill:none;stroke:#ffffff;stroke-width:0.52914065;stroke-linecap:butt;stroke-linejoin:miter;stroke-miterlimit:4;stroke-dasharray:none;stroke-opacity:1;enable-background:new" />
  <path
     style="color:#000000;display:inline;overflow:visible;visibility:visible;opacity:0.07999998;fill:#ffffff;fill-opacity:1;fill-rule:nonzero;stroke:none;stroke-width:0.26457033;marker:none;enable-background:accumulate"
     d="m 1.5878047,6.2174036 v 3.241503 c -0.011456,2.3393384 0.2397775,2.5790444 2.5743936,2.5790444 h 4.3757445 c 2.3346162,0 2.5743932,-0.23968 2.5743932,-2.5790444 v -3.241503 z"
     id="path1006"
     inkscape:connector-curvature="0" />
  <path
     style="color:#000000;display:inline;overflow:visible;visibility:visible;opacity:0.07999998;fill:#ffffff;fill-opacity:1;fill-rule:nonzero;stroke:none;stroke-width:0.26457033;marker:none;enable-background:accumulate"
     d="M 6.3500706,0.39685674 V 12.037951 h 2.1878722 c 2.3346162,0 2.5743932,-0.23968 2.5743932,-2.5790444 V 6.2174036 2.9759007 c 0,-2.33936516 -0.239777,-2.57904396 -2.5743932,-2.57904396 z"
     id="path1013"
     inkscape:connector-curvature="0" />
  <g
     aria-label="ovf"
     style="font-style:normal;font-variant:normal;font-weight:normal;font-stretch:normal;font-size:2.46932292px;line-height:1.25;font-family:Ubuntu;-inkscape-font-specification:'Ubuntu, Normal';font-variant-ligatures:normal;font-variant-caps:normal;font-variant-numeric:normal;font-feature-settings:normal;text-align:start;letter-spacing:0px;word-spacing:0px;writing-mode:lr-tb;text-anchor:start;display:inline;fill:#ffffff;fill-opacity:1;stroke:none;stroke-width:0.26457033;enable-background:new"
     id="text930">
    <path
       d="m 5.7992258,10.088242 q 0,0.153098 -0.044448,0.276564 -0.044448,0.123466 -0.1259355,0.212362 -0.079018,0.08889 -0.1901378,0.138282 -0.1111196,0.04692 -0.2419937,0.04692 -0.1308741,0 -0.2419936,-0.04692 -0.1111196,-0.04939 -0.1926072,-0.138282 -0.079018,-0.0889 -0.1234662,-0.212362 -0.044448,-0.123466 -0.044448,-0.276564 0,-0.150629 0.044448,-0.2740952 0.044448,-0.1259355 0.1234662,-0.2148311 0.081488,-0.088896 0.1926072,-0.1358127 0.1111195,-0.049386 0.2419936,-0.049386 0.1308741,0 0.2419937,0.049386 0.1111195,0.046917 0.1901378,0.1358127 0.081488,0.088896 0.1259355,0.2148311 0.044448,0.1234662 0.044448,0.2740952 z m -0.2395243,0 q 0,-0.2173008 -0.098773,-0.3432362 Q 5.364625,9.616601 5.196711,9.616601 q -0.1679139,0 -0.2666868,0.1284048 -0.096304,0.1259354 -0.096304,0.3432362 0,0.2173 0.096304,0.345705 0.098773,0.125935 0.2666868,0.125935 0.167914,0 0.2642176,-0.125935 0.098773,-0.128405 0.098773,-0.345705 z"
       style="stroke-width:0.26457033"
       id="path1147" />
    <path
       d="M 7.0906728,9.4462177 Q 6.9943692,9.8067388 6.8634951,10.137628 6.7350903,10.468517 6.6140935,10.730266 H 6.4066703 Q 6.2856735,10.468517 6.1547994,10.137628 6.0263946,9.8067388 5.930091,9.4462177 h 0.2469323 q 0.029632,0.1209968 0.069141,0.2592789 0.041978,0.1358128 0.086426,0.2716255 0.046917,0.1333439 0.093834,0.2592789 0.046917,0.125936 0.088896,0.224708 0.041979,-0.09877 0.088896,-0.224708 0.046917,-0.125935 0.091365,-0.2592789 0.046917,-0.1358127 0.086426,-0.2716255 0.041978,-0.1382821 0.07161,-0.2592789 z"
       style="stroke-width:0.26457033"
       id="path1149" />
    <path
       d="m 7.8289978,8.814071 q 0.1012422,0 0.1728526,0.014816 0.07408,0.014816 0.1037116,0.027162 l -0.041979,0.1975459 q -0.029632,-0.014816 -0.083957,-0.027163 -0.054325,-0.014816 -0.1333434,-0.014816 -0.160506,0 -0.2247084,0.088896 -0.064202,0.086426 -0.064202,0.2345857 V 9.4462177 H 8.0512369 V 9.6388249 H 7.5573723 V 10.730266 H 7.3277252 V 9.3301595 q 0,-0.2469323 0.1209969,-0.3802757 Q 7.5697189,8.814071 7.8289978,8.814071 Z"
       style="stroke-width:0.26457033"
       id="path1151" />
  </g>
</svg>
